;Sliced by ideaMaker 3.1.0.1545, 2021-12-12 09:20:25 UTC-0800
;Dimension: 305.000 305.000 305.000 0.400
;Extruder Offset #1: 25.000 0.000
;Filament Diameter #1: 1.750
;Filament Diameter #2: 1.750
;Filament Compensation #1: 94.00
;Filament Compensation #2: 94.00
;Filament Density #1: 1240.00
;Filament Density #2: 1240.00
;Model Gap: 0.200
M221 T0 S94.00
M221 T1 S94.00
M140 S60.00
M104 T0 S205.00
M104 T1 S215.00
M109 T0 S205.00
M109 T1 S215.00
T0
T1
M190 S60.00
G21
G90
M107
G28 X0 Y0
G28 Z0
G1 Z15.0 F6000.0
T1
G92 E0
G1 F200 E10
G92 E0
G1 F200 E-3.50
T0
G92 E0
G1 F200 E10
G92 E0
G1 F6000.0
M117 Printing...
M1001
M106 S0
;LAYER:-2
;HEIGHT:0.500
G0 F6000 X139.325 Y141.994
G0 F1500 Z0.500
;TYPE:RAFT
;WIDTH:0.800
G1 F480 X139.402 Y141.921 E0.0176
G1 X139.610 Y141.739 E0.0636
G1 X139.672 Y141.689 E0.0769
G1 X140.026 Y141.413 E0.1515
G1 X140.133 Y141.336 E0.1734
G1 X140.317 Y141.218 E0.2098
G1 X140.365 Y141.187 E0.2193
G1 X140.615 Y141.036 E0.2678
G1 X140.675 Y141.002 E0.2793
G1 X141.093 Y140.781 E0.3579
G1 X141.201 Y140.729 E0.3779
G1 X141.468 Y140.618 E0.4260
G1 X141.757 Y140.509 E0.4773
G1 X141.842 Y140.481 E0.4922
G1 X142.544 Y140.281 E0.6136
G1 X142.671 Y140.251 E0.6353
G1 X142.891 Y140.208 E0.6726
G1 X142.993 Y140.191 E0.6898
G1 X143.556 Y140.120 E0.7842
G1 X143.663 Y140.110 E0.8020
G1 X143.850 Y140.099 E0.8332
G1 X143.852 Y140.099 E0.8335
G1 X144.114 Y140.092 E0.8771
G1 X144.179 Y140.091 E0.8879
G1 X160.882 Y140.095 E3.6656
G1 X160.993 Y140.098 E3.6841
G1 X161.545 Y140.135 E3.7761
G1 X161.627 Y140.143 E3.7898
G1 X161.939 Y140.183 E3.8421
G1 X162.024 Y140.196 E3.8564
G1 X162.467 Y140.279 E3.9314
G1 X162.613 Y140.314 E3.9563
G1 X162.880 Y140.390 E4.0025
G1 X163.149 Y140.477 E4.0495
G1 X163.266 Y140.518 E4.0701
G1 X163.689 Y140.682 E4.1456
G1 X163.804 Y140.732 E4.1664
G1 X163.995 Y140.826 E4.2018
G1 X163.995 Y140.827 E4.2020
G1 X164.087 Y140.874 E4.2192
G1 X164.297 Y140.986 E4.2588
G1 X164.395 Y141.042 E4.2775
G1 X164.777 Y141.276 E4.3520
G1 X164.891 Y141.353 E4.3749
G1 X165.110 Y141.516 E4.4203
G1 X165.348 Y141.706 E4.4709
G1 X165.432 Y141.777 E4.4892
G1 X165.757 Y142.067 E4.5617
G1 X165.869 Y142.177 E4.5878
G1 X166.018 Y142.336 E4.6240
G1 X166.040 Y142.360 E4.6294
G1 X166.249 Y142.598 E4.6821
G1 X166.296 Y142.655 E4.6944
G1 X166.575 Y143.014 E4.7700
G1 X166.652 Y143.121 E4.7919
G1 X166.770 Y143.305 E4.8283
G1 X166.801 Y143.353 E4.8378
G1 X166.952 Y143.603 E4.8864
G1 X166.985 Y143.662 E4.8976
G1 X167.207 Y144.081 E4.9765
G1 X167.257 Y144.185 E4.9956
G1 X167.370 Y144.456 E5.0445
G1 X167.479 Y144.745 E5.0958
G1 X167.507 Y144.830 E5.1107
G1 X167.707 Y145.532 E5.2321
G1 X167.737 Y145.659 E5.2538
G1 X167.780 Y145.879 E5.2911
G1 X167.797 Y145.981 E5.3083
G1 X167.868 Y146.544 E5.4027
G1 X167.878 Y146.651 E5.4205
G1 X167.889 Y146.839 E5.4518
G1 X167.896 Y147.086 E5.4929
G1 X167.897 Y147.132 E5.5006
G1 X167.893 Y157.896 E7.2906
G1 X167.890 Y158.007 E7.3091
G1 X167.853 Y158.567 E7.4024
G1 X167.847 Y158.632 E7.4133
G1 X167.804 Y158.958 E7.4680
G1 X167.793 Y159.032 E7.4804
G1 X167.707 Y159.487 E7.5574
G1 X167.674 Y159.625 E7.5810
G1 X167.613 Y159.839 E7.6180
G1 X167.583 Y159.937 E7.6351
G1 X167.503 Y160.185 E7.6784
G1 X167.476 Y160.261 E7.6918
G1 X167.263 Y160.797 E7.7877
G1 X167.218 Y160.899 E7.8063
G1 X167.186 Y160.966 E7.8186
G1 X167.153 Y161.031 E7.8308
G1 X166.857 Y161.555 E7.9308
G1 X166.812 Y161.629 E7.9452
G1 X166.657 Y161.864 E7.9921
G1 X166.610 Y161.931 E8.0057
G1 X166.261 Y162.390 E8.1016
G1 X166.191 Y162.477 E8.1201
G1 X166.140 Y162.536 E8.1331
G1 X166.079 Y162.601 E8.1479
G1 X165.673 Y163.008 E8.2435
G1 X165.595 Y163.081 E8.2613
G1 X165.426 Y163.229 E8.2986
G1 X165.334 Y163.306 E8.3186
G1 X164.975 Y163.587 E8.3944
G1 X164.874 Y163.659 E8.4150
G1 X164.678 Y163.787 E8.4540
G1 X164.634 Y163.814 E8.4626
G1 X164.368 Y163.975 E8.5143
G1 X164.326 Y163.998 E8.5222
G1 X163.903 Y164.221 E8.6018
G1 X163.787 Y164.276 E8.6231
G1 X163.532 Y164.382 E8.6690
G1 X163.243 Y164.491 E8.7204
G1 X163.158 Y164.519 E8.7353
G1 X162.456 Y164.719 E8.8567
G1 X162.329 Y164.749 E8.8784
G1 X162.109 Y164.792 E8.9156
G1 X162.007 Y164.809 E8.9328
G1 X161.444 Y164.880 E9.0272
G1 X161.337 Y164.890 E9.0451
G1 X161.150 Y164.901 E9.0762
G1 X161.149 Y164.901 E9.0764
G1 X160.887 Y164.908 E9.1200
G1 X160.821 Y164.909 E9.1310
G1 X144.203 Y164.909 E11.8945
G1 X144.086 Y164.905 E11.9140
G1 X143.619 Y164.879 E11.9918
G1 X143.550 Y164.874 E12.0033
G1 X143.135 Y164.826 E12.0728
G1 X143.029 Y164.810 E12.0906
G1 X142.619 Y164.740 E12.1598
G1 X142.452 Y164.702 E12.1883
G1 X142.133 Y164.614 E12.2433
G1 X142.101 Y164.604 E12.2489
G1 X141.827 Y164.515 E12.2968
G1 X141.751 Y164.488 E12.3102
G1 X141.215 Y164.275 E12.4061
G1 X141.113 Y164.230 E12.4246
G1 X141.046 Y164.198 E12.4370
G1 X140.981 Y164.165 E12.4491
G1 X140.457 Y163.869 E12.5492
G1 X140.383 Y163.824 E12.5636
G1 X140.153 Y163.672 E12.6094
G1 X140.074 Y163.617 E12.6255
G1 X139.614 Y163.267 E12.7216
G1 X139.536 Y163.204 E12.7383
G1 X139.467 Y163.144 E12.7535
G1 X139.386 Y163.067 E12.7720
G1 X139.006 Y162.687 E12.8614
G1 X138.933 Y162.610 E12.8791
G1 X138.751 Y162.402 E12.9250
G1 X138.704 Y162.345 E12.9373
G1 X138.425 Y161.986 E13.0129
G1 X138.348 Y161.879 E13.0348
G1 X138.230 Y161.695 E13.0712
G1 X138.199 Y161.647 E13.0807
G1 X138.048 Y161.397 E13.1293
G1 X138.014 Y161.337 E13.1407
G1 X137.792 Y160.918 E13.2196
G1 X137.741 Y160.811 E13.2393
G1 X137.630 Y160.544 E13.2874
G1 X137.521 Y160.255 E13.3388
G1 X137.493 Y160.170 E13.3536
G1 X137.293 Y159.468 E13.4750
G1 X137.263 Y159.341 E13.4967
G1 X137.220 Y159.121 E13.5340
G1 X137.203 Y159.019 E13.5512
G1 X137.132 Y158.456 E13.6456
G1 X137.121 Y158.336 E13.6656
G1 X137.111 Y158.161 E13.6948
G1 X137.111 Y158.151 E13.6964
G1 X137.103 Y157.870 E13.7432
G1 X137.103 Y147.192 E15.5189
G1 X137.106 Y147.076 E15.5382
G1 X137.133 Y146.610 E15.6159
G1 X137.139 Y146.538 E15.6279
G1 X137.186 Y146.123 E15.6973
G1 X137.203 Y146.008 E15.7167
G1 X137.273 Y145.604 E15.7848
G1 X137.307 Y145.449 E15.8112
G1 X137.393 Y145.140 E15.8646
G1 X137.415 Y145.069 E15.8769
G1 X137.497 Y144.815 E15.9213
G1 X137.524 Y144.739 E15.9347
G1 X137.737 Y144.203 E16.0307
G1 X137.782 Y144.101 E16.0492
G1 X137.814 Y144.034 E16.0615
G1 X137.849 Y143.966 E16.0743
G1 X138.143 Y143.445 E16.1737
G1 X138.188 Y143.371 E16.1882
G1 X138.340 Y143.141 E16.2340
G1 X138.395 Y143.062 E16.2500
G1 X138.745 Y142.602 E16.3461
G1 X138.809 Y142.523 E16.3630
G1 X138.868 Y142.455 E16.3780
G1 X138.941 Y142.378 E16.3957
G1 X139.325 Y141.994 E16.4860
G0 F6000 X140.400 Y141.025
G1 F480 X140.400 Y163.975 E20.3026
G0 F6000 X142.800 Y164.892
G1 F480 X142.800 Y140.103 E24.4250
G0 F6000 X145.200 Y139.972
G1 F480 X145.200 Y165.029 E28.5920
G0 F6000 X147.600 Y165.029
G1 F480 X147.600 Y139.972 E32.7590
G0 F6000 X150.000 Y139.973
G1 F480 X150.000 Y165.029 E36.9258
G0 F6000 X152.400 Y165.029
G1 F480 X152.400 Y139.973 E41.0926
G0 F6000 X154.800 Y139.974
G1 F480 X154.800 Y165.029 E45.2593
G0 F6000 X157.200 Y165.029
G1 F480 X157.200 Y139.975 E49.4258
G0 F6000 X159.600 Y139.975
G1 F480 X159.600 Y165.029 E53.5923
G0 F6000 X162.000 Y164.932
G1 F480 X162.000 Y140.071 E57.7267
G0 F6000 X164.400 Y140.907
G1 F480 X164.400 Y164.095 E61.5829
G0 F6000 X166.800 Y161.866
G1 F480 X166.800 Y143.130 E64.6987
G0 F6000 X138.000 Y143.453
G1 F480 X138.000 Y161.550 E67.7082
M106 S255
;LAYER:-2
;HEIGHT:0.500
G0 F6000 X138.230 Y161.695
G0 F1500 Z1.000
;TYPE:RAFT
;WIDTH:0.800
G1 F960 X138.199 Y161.647 E67.7177
G1 X138.048 Y161.397 E67.7663
G1 X138.014 Y161.337 E67.7778
G1 X137.792 Y160.918 E67.8566
G1 X137.741 Y160.811 E67.8764
G1 X137.630 Y160.544 E67.9244
G1 X137.521 Y160.255 E67.9758
G1 X137.493 Y160.170 E67.9907
G1 X137.293 Y159.468 E68.1121
G1 X137.263 Y159.341 E68.1338
G1 X137.220 Y159.121 E68.1711
G1 X137.203 Y159.019 E68.1882
G1 X137.132 Y158.456 E68.2826
G1 X137.121 Y158.336 E68.3027
G1 X137.111 Y158.161 E68.3318
G1 X137.111 Y158.151 E68.3335
G1 X137.103 Y157.870 E68.3802
G1 X137.103 Y147.192 E70.1560
G1 X137.106 Y147.076 E70.1753
G1 X137.133 Y146.610 E70.2529
G1 X137.139 Y146.538 E70.2649
G1 X137.186 Y146.123 E70.3344
G1 X137.203 Y146.008 E70.3537
G1 X137.273 Y145.604 E70.4219
G1 X137.307 Y145.449 E70.4483
G1 X137.393 Y145.140 E70.5016
G1 X137.415 Y145.069 E70.5140
G1 X137.497 Y144.815 E70.5584
G1 X137.524 Y144.739 E70.5718
G1 X137.737 Y144.203 E70.6677
G1 X137.782 Y144.101 E70.6862
G1 X137.814 Y144.034 E70.6986
G1 X137.849 Y143.966 E70.7113
G1 X138.143 Y143.445 E70.8108
G1 X138.188 Y143.371 E70.8252
G1 X138.340 Y143.141 E70.8710
G1 X138.395 Y143.062 E70.8870
G1 X138.745 Y142.602 E70.9832
G1 X138.809 Y142.523 E71.0001
G1 X138.868 Y142.455 E71.0151
G1 X138.941 Y142.378 E71.0327
G1 X139.325 Y141.994 E71.1230
G1 X139.402 Y141.921 E71.1407
G1 X139.610 Y141.739 E71.1866
G1 X139.672 Y141.689 E71.1999
G1 X140.026 Y141.413 E71.2745
G1 X140.133 Y141.336 E71.2964
G1 X140.317 Y141.218 E71.3328
G1 X140.365 Y141.187 E71.3423
G1 X140.615 Y141.036 E71.3909
G1 X140.675 Y141.002 E71.4023
G1 X141.093 Y140.781 E71.4810
G1 X141.201 Y140.729 E71.5009
G1 X141.468 Y140.618 E71.5490
G1 X141.757 Y140.509 E71.6003
G1 X141.842 Y140.481 E71.6152
G1 X142.544 Y140.281 E71.7366
G1 X142.671 Y140.251 E71.7583
G1 X142.891 Y140.208 E71.7956
G1 X142.993 Y140.191 E71.8128
G1 X143.556 Y140.120 E71.9072
G1 X143.663 Y140.110 E71.9250
G1 X143.850 Y140.099 E71.9562
G1 X143.852 Y140.099 E71.9565
G1 X144.114 Y140.092 E72.0001
G1 X144.179 Y140.091 E72.0109
G1 X160.882 Y140.095 E74.7886
G1 X160.993 Y140.098 E74.8071
G1 X161.545 Y140.135 E74.8991
G1 X161.627 Y140.143 E74.9128
G1 X161.939 Y140.183 E74.9651
G1 X162.024 Y140.196 E74.9794
G1 X162.467 Y140.279 E75.0544
G1 X162.613 Y140.314 E75.0793
G1 X162.880 Y140.390 E75.1255
G1 X163.149 Y140.477 E75.1725
G1 X163.266 Y140.518 E75.1931
G1 X163.689 Y140.682 E75.2686
G1 X163.804 Y140.732 E75.2894
G1 X163.995 Y140.826 E75.3248
G1 X163.995 Y140.827 E75.3250
G1 X164.087 Y140.874 E75.3422
G1 X164.297 Y140.986 E75.3818
G1 X164.395 Y141.042 E75.4005
G1 X164.777 Y141.276 E75.4750
G1 X164.891 Y141.353 E75.4979
G1 X165.110 Y141.516 E75.5433
G1 X165.348 Y141.706 E75.5940
G1 X165.432 Y141.777 E75.6123
G1 X165.757 Y142.067 E75.6847
G1 X165.869 Y142.177 E75.7108
G1 X166.018 Y142.336 E75.7470
G1 X166.040 Y142.360 E75.7524
G1 X166.249 Y142.598 E75.8051
G1 X166.296 Y142.655 E75.8174
G1 X166.575 Y143.014 E75.8930
G1 X166.652 Y143.121 E75.9149
G1 X166.770 Y143.305 E75.9513
G1 X166.801 Y143.353 E75.9608
G1 X166.952 Y143.603 E76.0094
G1 X166.985 Y143.662 E76.0206
G1 X167.207 Y144.081 E76.0995
G1 X167.257 Y144.185 E76.1187
G1 X167.370 Y144.456 E76.1675
G1 X167.479 Y144.745 E76.2188
G1 X167.507 Y144.830 E76.2337
G1 X167.707 Y145.532 E76.3551
G1 X167.737 Y145.659 E76.3768
G1 X167.780 Y145.879 E76.4141
G1 X167.797 Y145.981 E76.4313
G1 X167.868 Y146.544 E76.5257
G1 X167.878 Y146.651 E76.5435
G1 X167.889 Y146.839 E76.5749
G1 X167.896 Y147.086 E76.6159
G1 X167.897 Y147.132 E76.6236
G1 X167.893 Y157.896 E78.4137
G1 X167.890 Y158.007 E78.4321
G1 X167.853 Y158.567 E78.5255
G1 X167.847 Y158.632 E78.5363
G1 X167.804 Y158.958 E78.5910
G1 X167.793 Y159.032 E78.6034
G1 X167.707 Y159.487 E78.6804
G1 X167.674 Y159.625 E78.7040
G1 X167.613 Y159.839 E78.7410
G1 X167.583 Y159.937 E78.7581
G1 X167.503 Y160.185 E78.8014
G1 X167.476 Y160.261 E78.8148
G1 X167.263 Y160.797 E78.9108
G1 X167.218 Y160.899 E78.9293
G1 X167.186 Y160.966 E78.9416
G1 X167.153 Y161.031 E78.9538
G1 X166.857 Y161.555 E79.0538
G1 X166.812 Y161.629 E79.0683
G1 X166.657 Y161.864 E79.1151
G1 X166.610 Y161.931 E79.1287
G1 X166.261 Y162.390 E79.2246
G1 X166.191 Y162.477 E79.2431
G1 X166.140 Y162.536 E79.2561
G1 X166.079 Y162.601 E79.2709
G1 X165.673 Y163.008 E79.3665
G1 X165.595 Y163.081 E79.3843
G1 X165.426 Y163.229 E79.4217
G1 X165.334 Y163.306 E79.4416
G1 X164.975 Y163.587 E79.5174
G1 X164.874 Y163.659 E79.5381
G1 X164.678 Y163.787 E79.5770
G1 X164.634 Y163.814 E79.5856
G1 X164.368 Y163.975 E79.6373
G1 X164.326 Y163.998 E79.6452
G1 X163.903 Y164.221 E79.7248
G1 X163.787 Y164.276 E79.7461
G1 X163.532 Y164.382 E79.7920
G1 X163.243 Y164.491 E79.8434
G1 X163.158 Y164.519 E79.8583
G1 X162.456 Y164.719 E79.9797
G1 X162.329 Y164.749 E80.0014
G1 X162.109 Y164.792 E80.0387
G1 X162.007 Y164.809 E80.0558
G1 X161.444 Y164.880 E80.1502
G1 X161.337 Y164.890 E80.1681
G1 X161.150 Y164.901 E80.1992
G1 X161.149 Y164.901 E80.1994
G1 X160.887 Y164.908 E80.2430
G1 X160.821 Y164.909 E80.2540
G1 X144.203 Y164.909 E83.0176
G1 X144.086 Y164.905 E83.0370
G1 X143.619 Y164.879 E83.1148
G1 X143.550 Y164.874 E83.1263
G1 X143.135 Y164.826 E83.1958
G1 X143.029 Y164.810 E83.2136
G1 X142.619 Y164.740 E83.2828
G1 X142.452 Y164.702 E83.3113
G1 X142.133 Y164.614 E83.3663
G1 X142.101 Y164.604 E83.3719
G1 X141.827 Y164.515 E83.4198
G1 X141.751 Y164.488 E83.4332
G1 X141.215 Y164.275 E83.5291
G1 X141.113 Y164.230 E83.5477
G1 X141.046 Y164.198 E83.5600
G1 X140.981 Y164.165 E83.5721
G1 X140.457 Y163.869 E83.6722
G1 X140.383 Y163.824 E83.6866
G1 X140.153 Y163.672 E83.7325
G1 X140.074 Y163.617 E83.7485
G1 X139.614 Y163.267 E83.8446
G1 X139.536 Y163.204 E83.8613
G1 X139.467 Y163.144 E83.8765
G1 X139.386 Y163.067 E83.8951
G1 X139.006 Y162.687 E83.9844
G1 X138.933 Y162.610 E84.0021
G1 X138.751 Y162.402 E84.0480
G1 X138.704 Y162.345 E84.0603
G1 X138.425 Y161.986 E84.1359
G1 X138.348 Y161.879 E84.1579
G1 X138.230 Y161.695 E84.1942
G0 F6000 X138.000 Y161.550
G1 F960 X138.000 Y143.453 E87.2038
G0 F6000 X140.400 Y141.025
G1 F960 X140.400 Y163.975 E91.0203
G0 F6000 X142.800 Y164.892
G1 F960 X142.800 Y140.103 E95.1428
G0 F6000 X145.200 Y139.972
G1 F960 X145.200 Y165.029 E99.3098
G0 F6000 X147.600 Y165.029
G1 F960 X147.600 Y139.972 E103.4768
G0 F6000 X150.000 Y139.973
G1 F960 X150.000 Y165.029 E107.6436
G0 F6000 X152.400 Y165.029
G1 F960 X152.400 Y139.973 E111.8104
G0 F6000 X154.800 Y139.974
G1 F960 X154.800 Y165.029 E115.9771
G0 F6000 X157.200 Y165.029
G1 F960 X157.200 Y139.975 E120.1436
G0 F6000 X159.600 Y139.975
G1 F960 X159.600 Y165.029 E124.3101
G0 F6000 X162.000 Y164.932
G1 F960 X162.000 Y140.071 E128.4445
G0 F6000 X164.400 Y140.907
G1 F960 X164.400 Y164.095 E132.3007
G0 F6000 X166.800 Y161.866
G1 F960 X166.800 Y143.130 E135.4165
;LAYER:-1
;HEIGHT:0.380
G0 F6000 X164.499 Y141.000
G0 F1500 Z1.380
;TYPE:RAFT
;WIDTH:0.600
G1 F1800 X140.501 Y141.000 E137.6913
G0 F6000 X138.992 Y142.200
G1 F1800 X166.015 Y142.200 E140.2528
G0 F6000 X166.935 Y143.400
G1 F1800 X138.065 Y143.400 E142.9895
G0 F6000 X137.483 Y144.600
G1 F1800 X167.521 Y144.600 E145.8368
G0 F6000 X167.857 Y145.800
G1 F1800 X137.148 Y145.800 E148.7477
G0 F6000 X137.021 Y147.000
G1 F1800 X167.984 Y147.000 E151.6828
G0 F6000 X167.986 Y148.200
G1 F1800 X137.013 Y148.200 E154.6187
G0 F6000 X137.013 Y149.400
G1 F1800 X167.986 Y149.400 E157.5547
G0 F6000 X167.985 Y150.600
G1 F1800 X137.013 Y150.600 E160.4906
G0 F6000 X137.013 Y151.800
G1 F1800 X167.985 Y151.800 E163.4265
G0 F6000 X167.984 Y153.000
G1 F1800 X137.013 Y153.000 E166.3623
G0 F6000 X137.013 Y154.200
G1 F1800 X167.984 Y154.200 E169.2980
G0 F6000 X167.983 Y155.400
G1 F1800 X137.013 Y155.400 E172.2337
G0 F6000 X137.013 Y156.600
G1 F1800 X167.983 Y156.600 E175.1694
G0 F6000 X167.983 Y157.800
G1 F1800 X137.013 Y157.800 E178.1051
G0 F6000 X137.109 Y159.000
G1 F1800 X167.888 Y159.000 E181.0227
G0 F6000 X167.592 Y160.200
G1 F1800 X137.408 Y160.200 E183.8839
G0 F6000 X137.946 Y161.400
G1 F1800 X167.048 Y161.400 E186.6425
G0 F6000 X166.203 Y162.600
G1 F1800 X138.804 Y162.600 E189.2397
G0 F6000 X140.183 Y163.800
G1 F1800 X164.822 Y163.800 E191.5753
;LAYER:-1
;HEIGHT:0.220
G0 F6000 X167.445 Y144.485
G0 F1500 Z1.600
;TYPE:RAFT
