;FLAVOR:Marlin
;Print time:00:14
;Filament used: 0m
;Layer height: 0.3

;Generated with Cura_SteamEngine 3.6.0
M82 ;absolute extrusion mode
;Basic settings:; Layer height: 0.3 ; Walls: 1 ; Fill: 18.0 ; Speed: 60.0 ; Temperature: 225 ; Filament Diameter: 1.75 ; Support Structures: everywhere ; Support Angle: 65
;Print time: 00:14
;Print weight: 2.0g
M104 S235.0
T0
G28
G90
M106 S0
G92 E0
G1 Z0.5 F2000
M109 S235.0
G1 Z0.2 E0 F2000
G1 X65 E7 F1500
G1 X12 Y2 E14 F1500

G92 E0
G1 F3600 E-0.8
;LAYER_COUNT:79
;LAYER:0
M107
G1 F1200.000000 X96.46 Y58.88 E3.80
G0 F3600 X106.459 Y68.875 Z0.3
G92 E0

;TYPE:SKIRT
G1 F3600 E0
G1 F1800 X109.099 Y68.875 E0.11854
G1 X109.099 Y69.411 E0.14261
G1 X106.459 Y69.411 E0.26115
G1 X106.459 Y68.875 E0.28521
G1 F3600 E-0.51479
G0 F3600 X97.409 Y63.613
G1 F3600 E0.28521
G1 F1800 X116.914 Y63.596 E1.16101
G1 X117.138 Y63.604 E1.17107
G1 X117.886 Y63.656 E1.20474
G1 X118.384 Y63.73 E1.22735
G1 X118.864 Y63.883 E1.24997
G1 X119.315 Y64.109 E1.27262
G1 X119.723 Y64.404 E1.29523
G1 X120.08 Y64.76 E1.31786
G1 X120.377 Y65.167 E1.34049
G1 X120.605 Y65.617 E1.36314
G1 X120.76 Y66.096 E1.38574
G1 X120.845 Y66.83 E1.41892
G1 X120.829 Y92.971 E2.59268
G1 X120.789 Y93.473 E2.6153
G1 X120.67 Y93.963 E2.63794
G1 X120.475 Y94.428 E2.66058
G1 X120.209 Y94.856 E2.6832
G1 X119.878 Y95.237 E2.70587
G1 X119.492 Y95.56 E2.72847
G1 X119.06 Y95.819 E2.75108
G1 X118.592 Y96.006 E2.77371
G1 X118.1 Y96.117 E2.79636
G1 X117.644 Y96.149 E2.81688
G1 X97.33 Y96.115 E3.72901
G1 X96.827 Y96.074 E3.75167
G1 X96.338 Y95.955 E3.77426
G1 X95.873 Y95.759 E3.79692
G1 X95.445 Y95.493 E3.81955
G1 X95.065 Y95.162 E3.84218
G1 X94.742 Y94.775 E3.86481
G1 X94.484 Y94.343 E3.8874
G1 X94.297 Y93.874 E3.91007
G1 X94.187 Y93.383 E3.93267
G1 X94.155 Y92.936 E3.95279
G1 X94.147 Y66.939 E5.12009
G1 X94.187 Y66.437 E5.1427
G1 X94.305 Y65.947 E5.16533
G1 X94.669 Y65.185 E5.20328
G1 X94.957 Y64.772 E5.22589
G1 X95.307 Y64.409 E5.24853
G1 X95.71 Y64.107 E5.27114
G1 X96.156 Y63.871 E5.2938
G1 X96.634 Y63.71 E5.31645
G1 X97.13 Y63.625 E5.33904
G1 X97.409 Y63.613 E5.35158
G0 F3600 X97.409 Y63.253
G1 F1800 X116.914 Y63.236 E6.22738
G1 X117.163 Y63.245 E6.23857
G1 X117.911 Y63.297 E6.27223
G1 X118.437 Y63.373 E6.2961
G1 X118.946 Y63.528 E6.31999
G1 X119.425 Y63.757 E6.34383
G1 X119.866 Y64.055 E6.36772
G1 X120.256 Y64.416 E6.39159
G1 X120.588 Y64.831 E6.41545
G1 X120.854 Y65.292 E6.43935
G1 X121.048 Y65.787 E6.46322
G1 X121.166 Y66.306 E6.48712
G1 X121.205 Y66.83 E6.51071
G1 X121.189 Y92.971 E7.68447
G1 X121.149 Y93.501 E7.70834
G1 X121.029 Y94.02 E7.73226
G1 X120.834 Y94.514 E7.7561
G1 X120.567 Y94.974 E7.77999
G1 X120.233 Y95.388 E7.80387
G1 X119.842 Y95.748 E7.82774
G1 X119.401 Y96.045 E7.85161
G1 X118.92 Y96.273 E7.87551
G1 X118.411 Y96.426 E7.89937
G1 X117.643 Y96.509 E7.93406
G1 X97.329 Y96.475 E8.84618
G1 X96.799 Y96.434 E8.87005
G1 X96.281 Y96.314 E8.89393
G1 X95.786 Y96.118 E8.91783
G1 X95.327 Y95.85 E8.9417
G1 X94.913 Y95.517 E8.96555
G1 X94.554 Y95.125 E8.98942
G1 X94.257 Y94.683 E9.01333
G1 X94.03 Y94.203 E9.03717
G1 X93.877 Y93.693 E9.06108
G1 X93.795 Y92.936 E9.09527
G1 X93.787 Y66.939 E10.26257
G1 X93.827 Y66.409 E10.28643
G1 X93.946 Y65.89 E10.31034
G1 X94.141 Y65.396 E10.33419
G1 X94.358 Y65.003 E10.35435
G1 X94.661 Y64.565 E10.37826
G1 X95.025 Y64.178 E10.40212
G1 X95.444 Y63.85 E10.42601
G1 X95.907 Y63.589 E10.44987
G1 X96.404 Y63.4 E10.47375
G1 X96.924 Y63.287 E10.49764
G1 X97.409 Y63.253 E10.51947
G1 F3600 E9.71947
;MESH:C:\Program Files (x86)\Tinkerine Suite 3\TinkerineSuite\util\CuraEngine\temp_stls\temp_saved_scene.stl
G0 F3600 X100.402 Y69.36
;TYPE:WALL-OUTER
G1 F3600 E10.51947
G1 F1800 X100.402 Y81.373 E11.05887
G1 X114.598 Y81.373 E11.69629
G1 X114.598 Y69.36 E12.23569
G1 X111.381 Y69.36 E12.38013
G1 X111.034 Y67.815 E12.45123
G1 X102.996 Y67.815 E12.81215
G1 X102.715 Y69.36 E12.88266
G1 X100.402 Y69.36 E12.98652
G0 F3600 X100.402 Y69.56
G1 F3600 E12.18652
G0 F3600 X110.729 Y88.129
G1 F3600 E12.98652
G1 F1800 X104.659 Y88.129 E13.25907
G1 X104.659 Y92.623 E13.46085
G1 X104.659 Y92.803 E13.46893
G1 X97.495 Y92.798 E13.78776
G1 X97.497 Y66.953 E14.94823
G1 X117.506 Y66.956 E15.8438
G1 X117.51 Y92.812 E17.00477
G1 X110.729 Y92.807 E17.30639
G1 X110.729 Y88.129 E17.51644
G0 F3600 X110.529 Y88.129
G0 X111.079 Y87.779
;TYPE:SKIN
G1 F1800 X104.309 Y87.779 E17.82042
G1 X104.309 Y92.453 E18.03029
G1 X97.845 Y92.448 E18.32053
G1 X97.847 Y67.303 E19.44957
G1 X117.156 Y67.306 E20.31657
G1 X117.16 Y92.462 E21.4461
G1 X111.079 Y92.457 E21.71915
G1 X111.079 Y87.779 E21.92919
G1 F3600 E21.12919
G0 F3600 X114.948 Y81.723
G1 F3600 E21.92919
G1 F1800 X114.948 Y69.01 E22.50002
G1 X111.661 Y69.01 E22.64761
G1 X111.314 Y67.465 E22.71871
G1 X102.704 Y67.465 E23.10531
G1 X102.423 Y69.01 E23.17582
G1 X100.052 Y69.01 E23.28228
G1 X100.052 Y81.723 E23.85311
G1 X114.948 Y81.723 E24.52196
G1 F3600 E23.72196
G0 F3600 X116.995 Y67.611
G1 F3600 E24.52196
G1 F1800 X116.85 Y67.466 E24.53117
G0 F3600 X116.341 Y67.466
G1 F1800 X116.995 Y68.12 E24.5727
G0 F3600 X116.995 Y68.629
G1 F1800 X115.832 Y67.466 E24.64655
G0 F3600 X115.323 Y67.466
G1 F1800 X116.995 Y69.138 E24.75272
G0 F3600 X116.995 Y69.647
G1 F1800 X114.814 Y67.466 E24.89121
G0 F3600 X114.305 Y67.466
G1 F1800 X116.995 Y70.157 E25.06206
G0 F3600 X116.995 Y70.666
G1 F1800 X113.795 Y67.465 E25.26529
G0 F3600 X113.286 Y67.465
G1 F1800 X114.67 Y68.849 E25.35317
G0 F3600 X114.16 Y68.849
G1 F1800 X112.777 Y67.465 E25.44102
G0 F3600 X112.268 Y67.465
G1 F1800 X113.651 Y68.849 E25.52888
G0 F3600 X113.142 Y68.849
G1 F1800 X111.758 Y67.465 E25.61676
G0 F3600 X111.542 Y67.758
G1 F1800 X112.633 Y68.849 E25.68604
G0 F3600 X112.124 Y68.849
G1 F1800 X111.69 Y68.415 E25.7136
G1 F3600 E24.9136
G0 F3600 X115.107 Y69.286
G1 F3600 E25.7136
G1 F1800 X116.995 Y71.175 E25.83352
G0 F3600 X116.996 Y71.685
G1 F1800 X115.107 Y69.795 E25.9535
G0 F3600 X115.107 Y70.304
G1 F1800 X116.996 Y72.194 E26.07348
G0 F3600 X116.996 Y72.703
G1 F1800 X115.107 Y70.813 E26.19347
G0 F3600 X115.107 Y71.323
G1 F1800 X116.996 Y73.212 E26.31342
G0 F3600 X116.996 Y73.721
G1 F1800 X115.107 Y71.832 E26.43337
G0 F3600 X115.107 Y72.341
G1 F1800 X116.996 Y74.23 E26.55332
G0 F3600 X116.996 Y74.739
G1 F1800 X115.107 Y72.85 E26.67327
G0 F3600 X115.107 Y73.359
G1 F1800 X116.996 Y75.248 E26.79322
G0 F3600 X116.997 Y75.758
G1 F1800 X115.107 Y73.868 E26.91324
G0 F3600 X115.107 Y74.377
G1 F1800 X116.997 Y76.267 E27.03325
G0 F3600 X116.997 Y76.776
G1 F1800 X115.107 Y74.886 E27.15327
G0 F3600 X115.107 Y75.395
G1 F1800 X116.997 Y77.286 E27.27331
G0 F3600 X116.997 Y77.795
G1 F1800 X115.107 Y75.905 E27.39333
G0 F3600 X115.107 Y76.414
G1 F1800 X116.997 Y78.304 E27.51334
G0 F3600 X116.997 Y78.813
G1 F1800 X115.107 Y76.923 E27.63336
G0 F3600 X115.107 Y77.432
G1 F1800 X116.997 Y79.322 E27.75337
G0 F3600 X116.997 Y79.831
G1 F1800 X115.107 Y77.941 E27.87339
G0 F3600 X115.107 Y78.45
G1 F1800 X116.997 Y80.341 E27.99343
G0 F3600 X116.997 Y80.85
G1 F1800 X115.107 Y78.959 E28.11348
G0 F3600 X115.107 Y79.468
G1 F1800 X116.997 Y81.359 E28.23353
G0 F3600 X116.997 Y81.868
G1 F1800 X115.107 Y79.978 E28.35354
G0 F3600 X115.107 Y80.487
G1 F1800 X116.997 Y82.377 E28.47356
G0 F3600 X116.997 Y82.887
G1 F1800 X115.107 Y80.996 E28.5936
G0 F3600 X115.107 Y81.505
G1 F1800 X116.997 Y83.396 E28.71365
G0 F3600 X116.997 Y83.905
G1 F1800 X114.975 Y81.882 E28.84208
G0 F3600 X114.466 Y81.882
G1 F1800 X116.998 Y84.415 E29.00289
G0 F3600 X116.998 Y84.924
G1 F1800 X113.957 Y81.882 E29.19603
G0 F3600 X113.448 Y81.882
G1 F1800 X116.998 Y85.433 E29.42148
G0 F3600 X116.998 Y85.942
G1 F1800 X112.939 Y81.882 E29.67926
G0 F3600 X112.429 Y81.882
G1 F1800 X116.998 Y86.451 E29.96939
G0 F3600 X116.998 Y86.96
G1 F1800 X111.92 Y81.882 E30.29184
G0 F3600 X111.411 Y81.882
G1 F1800 X116.998 Y87.469 E30.64662
G0 F3600 X116.998 Y87.978
G1 F1800 X110.902 Y81.882 E31.03371
G0 F3600 X110.393 Y81.882
G1 F1800 X116.999 Y88.488 E31.45319
G0 F3600 X116.999 Y88.997
G1 F1800 X109.884 Y81.882 E31.90499
G0 F3600 X109.375 Y81.882
G1 F1800 X116.999 Y89.506 E32.38912
G0 F3600 X116.999 Y90.016
G1 F1800 X108.866 Y81.882 E32.90559
G0 F3600 X108.357 Y81.882
G1 F1800 X116.999 Y90.525 E33.45439
G0 F3600 X116.999 Y91.034
G1 F1800 X107.847 Y81.882 E34.03554
G0 F3600 X107.338 Y81.882
G1 F1800 X116.999 Y91.543 E34.64901
G0 F3600 X116.999 Y92.052
G1 F1800 X106.829 Y81.882 E35.29481
G0 F3600 X106.32 Y81.882
G1 F1800 X116.738 Y92.3 E35.95635
G0 F3600 X116.229 Y92.3
G1 F1800 X105.811 Y81.882 E36.61789
G0 F3600 X105.302 Y81.882
G1 F1800 X111.038 Y87.619 E36.98216
G0 F3600 X111.237 Y87.818
G1 F1800 X115.719 Y92.3 E37.26676
G0 F3600 X115.209 Y92.299
G1 F1800 X111.237 Y88.327 E37.51898
G0 F3600 X111.237 Y88.836
G1 F1800 X114.7 Y92.299 E37.73888
G0 F3600 X114.19 Y92.298
G1 F1800 X111.237 Y89.345 E37.9264
G0 F3600 X111.237 Y89.854
G1 F1800 X113.68 Y92.297 E38.08153
G0 F3600 X113.171 Y92.297
G1 F1800 X111.237 Y90.364 E38.20431
G0 F3600 X111.237 Y90.873
G1 F1800 X112.661 Y92.297 E38.29473
G0 F3600 X112.152 Y92.297
G1 F1800 X111.237 Y91.382 E38.35283
G0 F3600 X111.237 Y91.891
G1 F1800 X111.642 Y92.296 E38.37855
G1 F3600 E37.57855
G0 F3600 X110.529 Y87.619
G1 F3600 E38.37855
G1 F1800 X104.793 Y81.882 E38.74282
G0 F3600 X104.284 Y81.882
G1 F1800 X110.02 Y87.619 E39.10708
G0 F3600 X109.511 Y87.619
G1 F1800 X103.774 Y81.882 E39.47138
G0 F3600 X103.265 Y81.882
G1 F1800 X109.001 Y87.619 E39.83565
G0 F3600 X108.492 Y87.619
G1 F1800 X102.756 Y81.882 E40.19992
G0 F3600 X102.247 Y81.882
G1 F1800 X107.983 Y87.619 E40.56418
G0 F3600 X107.474 Y87.619
G1 F1800 X101.738 Y81.882 E40.92845
G0 F3600 X101.229 Y81.882
G1 F1800 X106.965 Y87.619 E41.29272
G0 F3600 X106.456 Y87.619
G1 F1800 X100.72 Y81.882 E41.65698
G0 F3600 X100.211 Y81.882
G1 F1800 X105.947 Y87.619 E42.02125
G0 F3600 X105.438 Y87.619
G1 F1800 X98.004 Y80.185 E42.49331
G0 F3600 X98.004 Y79.676
G1 F1800 X99.891 Y81.563 E42.61313
G0 F3600 X99.891 Y81.054
G1 F1800 X98.004 Y79.167 E42.73296
G0 F3600 X98.004 Y78.658
G1 F1800 X99.891 Y80.545 E42.85278
G0 F3600 X99.891 Y80.036
G1 F1800 X98.004 Y78.149 E42.97261
G0 F3600 X98.004 Y77.64
G1 F1800 X99.891 Y79.526 E43.0924
G0 F3600 X99.891 Y79.017
G1 F1800 X98.004 Y77.131 E43.21219
G0 F3600 X98.004 Y76.622
G1 F1800 X99.891 Y78.508 E43.33198
G0 F3600 X99.891 Y77.999
G1 F1800 X98.004 Y76.112 E43.45181
G0 F3600 X98.004 Y75.603
G1 F1800 X99.891 Y77.49 E43.57163
G0 F3600 X99.891 Y76.981
G1 F1800 X98.004 Y75.094 E43.69146
G0 F3600 X98.004 Y74.585
G1 F1800 X99.891 Y76.472 E43.81128
G0 F3600 X99.891 Y75.963
G1 F1800 X98.004 Y74.076 E43.93111
G0 F3600 X98.004 Y73.567
G1 F1800 X99.891 Y75.453 E44.0509
G0 F3600 X99.891 Y74.944
G1 F1800 X98.004 Y73.058 E44.17069
G0 F3600 X98.004 Y72.549
G1 F1800 X99.891 Y74.435 E44.29048
G0 F3600 X99.891 Y73.926
G1 F1800 X98.004 Y72.04 E44.41028
G0 F3600 X98.004 Y71.53
G1 F1800 X99.891 Y73.417 E44.5301
G0 F3600 X99.891 Y72.908
G1 F1800 X98.004 Y71.021 E44.64992
G0 F3600 X98.004 Y70.512
G1 F1800 X99.891 Y72.399 E44.76975
G0 F3600 X99.891 Y71.89
G1 F1800 X98.004 Y70.003 E44.88957
G0 F3600 X98.004 Y69.494
G1 F1800 X99.891 Y71.381 E45.0094
G0 F3600 X99.891 Y70.871
G1 F1800 X98.004 Y68.985 E45.12919
G0 F3600 X98.004 Y68.476
G1 F1800 X99.891 Y70.362 E45.24898
G0 F3600 X99.891 Y69.853
G1 F1800 X98.004 Y67.967 E45.36877
G0 F3600 X98.01 Y67.463
G1 F1800 X99.891 Y69.344 E45.48822
G0 F3600 X99.905 Y68.849
G1 F1800 X98.519 Y67.463 E45.57623
G0 F3600 X99.028 Y67.463
G1 F1800 X100.414 Y68.849 E45.66424
G0 F3600 X100.923 Y68.849
G1 F1800 X99.538 Y67.463 E45.75222
G0 F3600 X100.047 Y67.463
G1 F1800 X101.433 Y68.849 E45.84023
G0 F3600 X101.942 Y68.849
G1 F1800 X100.556 Y67.464 E45.92821
G0 F3600 X101.066 Y67.464
G1 F1800 X102.314 Y68.713 E46.00749
G0 F3600 X102.393 Y68.282
G1 F1800 X101.575 Y67.464 E46.05943
G0 F3600 X102.084 Y67.464
G1 F1800 X102.471 Y67.851 E46.084
G1 F3600 E45.284
G0 F3600 X98.004 Y80.694
G1 F3600 E46.084
G1 F1800 X104.928 Y87.619 E46.52371
G0 F3600 X104.419 Y87.619
G1 F1800 X98.004 Y81.203 E46.93109
G0 F3600 X98.004 Y81.712
G1 F1800 X104.148 Y87.856 E47.32124
G0 F3600 X104.148 Y88.365
G1 F1800 X98.004 Y82.221 E47.71138
G0 F3600 X98.004 Y82.73
M104 S225
G1 F1800 X104.148 Y88.874 E48.10152
G0 F3600 X104.148 Y89.383
G1 F1800 X98.004 Y83.239 E48.49167
G0 F3600 X98.004 Y83.749
G1 F1800 X104.148 Y89.893 E48.88181
G0 F3600 X104.148 Y90.402
G1 F1800 X98.004 Y84.258 E49.27195
G0 F3600 X98.004 Y84.767
G1 F1800 X104.148 Y90.911 E49.66209
G0 F3600 X104.148 Y91.42
G1 F1800 X98.004 Y85.276 E50.05224
G0 F3600 X98.004 Y85.785
G1 F1800 X104.148 Y91.929 E50.44238
G0 F3600 X104.001 Y92.292
G1 F1800 X98.004 Y86.294 E50.82322
G0 F3600 X98.004 Y86.803
G1 F1800 X103.492 Y92.292 E51.17174
G0 F3600 X102.983 Y92.291
G1 F1800 X98.004 Y87.312 E51.48791
G0 F3600 X98.004 Y87.821
G1 F1800 X102.473 Y92.291 E51.77172
G0 F3600 X101.964 Y92.29
G1 F1800 X98.004 Y88.331 E52.02315
G0 F3600 X98.004 Y88.84
G1 F1800 X101.454 Y92.29 E52.24222
G0 F3600 X100.945 Y92.29
G1 F1800 X98.004 Y89.349 E52.42897
G0 F3600 X98.004 Y89.858
G1 F1800 X100.435 Y92.289 E52.58334
G0 F3600 X99.926 Y92.289
G1 F1800 X98.004 Y90.367 E52.70539
G0 F3600 X98.004 Y90.876
G1 F1800 X99.416 Y92.288 E52.79505
G0 F3600 X98.907 Y92.288
G1 F1800 X98.004 Y91.385 E52.85239
G0 F3600 X98.004 Y91.894
G1 F1800 X98.397 Y92.288 E52.87738
G1 F3600 E52.07738
;MESH:NONMESH
G0 F3600 X100.702 Y69.66
;TIME_ELAPSED:52.422727
;LAYER:1
M106 S255
;MESH:C:\Program Files (x86)\Tinkerine Suite 3\TinkerineSuite\util\CuraEngine\temp_stls\temp_saved_scene.stl
G0 F7800 X100.702 Y69.66 Z0.6
;TYPE:WALL-OUTER
G1 F3600 E52.87738
G1 F1800 X100.702 Y81.073 E53.38984
G1 X114.298 Y81.073 E54.00031
G1 X114.298 Y69.66 E54.51277
G1 X111.12 Y69.66 E54.65547
G1 X110.787 Y68.115 E54.72644
G1 X103.281 Y68.115 E55.06347
G1 X103 Y69.66 E55.13398
G1 X100.702 Y69.66 E55.23716
G0 F7800 X100.702 Y69.86
G1 F3600 E54.43716
G0 F7800 X117.836 Y66.694
G1 F3600 E55.23716
G1 F1800 X117.951 Y66.845 E55.24569
G1 X117.984 Y67.069 E55.25585
G1 X117.983 Y92.891 E56.41529
G1 X117.937 Y93.146 E56.42693
G1 X117.849 Y93.264 E56.43354
G1 X117.689 Y93.321 E56.44116
G1 X97.313 Y93.314 E57.35607
G1 X97.155 Y93.258 E57.3636
G1 X97.067 Y93.143 E57.3701
G1 X97.016 Y92.886 E57.38186
G1 X97.016 Y67.074 E58.54085
G1 X97.054 Y66.845 E58.55127
G1 X97.172 Y66.697 E58.55977
G1 X97.363 Y66.628 E58.56889
G1 X117.662 Y66.628 E59.48034
G1 X117.836 Y66.694 E59.4887
G0 F7800 X117.951 Y66.845
G0 X117.952 Y66.855
G1 F3600 E58.6887
G0 F7800 X104.959 Y88.429
G1 F3600 E59.4887
G1 F1800 X104.959 Y92.665 E59.6789
G1 X110.429 Y92.665 E59.92451
G1 X110.429 Y88.429 E60.11471
G1 X104.959 Y88.429 E60.36032
G0 F7800 X104.959 Y88.629
G0 X104.609 Y88.079
;TYPE:SKIN
G1 F2700 X104.609 Y92.966 E60.57975
G1 X97.389 Y92.964 E60.90394
G1 X97.366 Y92.846 E60.90934
G1 X97.385 Y66.992 E62.07028
G1 X117.618 Y66.986 E62.97895
G1 X117.614 Y92.971 E64.14583
G1 X110.779 Y92.968 E64.45273
G1 X110.779 Y88.079 E64.67226
G1 X104.609 Y88.079 E64.9493
G1 F3600 E64.1493
G0 F7800 X100.352 Y81.423
G1 F3600 E64.9493
G1 F2700 X114.648 Y81.423 E65.5912
G1 X114.648 Y69.31 E66.13509
G1 X111.4 Y69.31 E66.28093
G1 X111.077 Y67.765 E66.35181
G1 X102.988 Y67.765 E66.71502
G1 X102.712 Y69.31 E66.78549
G1 X100.352 Y69.31 E66.89146
G1 X100.352 Y81.423 E67.43535
G1 F3600 E66.63535
G0 F7800 X97.815 Y67.138
G1 F3600 E67.43535
G1 F2700 X97.525 Y67.428 E67.45376
G0 F7800 X97.525 Y67.937
G1 F2700 X98.324 Y67.138 E67.5045
G0 F7800 X98.833 Y67.138
G1 F2700 X97.525 Y68.446 E67.58755
G0 F7800 X97.525 Y68.955
G1 F2700 X99.342 Y67.138 E67.70293
G0 F7800 X99.851 Y67.138
G1 F2700 X97.525 Y69.464 E67.85063
G0 F7800 X97.525 Y69.973
G1 F2700 X100.361 Y67.138 E68.03069
G0 F7800 X100.87 Y67.138
G1 F2700 X97.525 Y70.482 E68.24306
G0 F7800 X97.525 Y70.992
G1 F2700 X101.379 Y67.138 E68.48779
G0 F7800 X101.888 Y67.138
G1 F2700 X97.525 Y71.501 E68.76484
G0 F7800 X97.525 Y72.01
G1 F2700 X100.191 Y69.344 E68.93413
G0 F7800 X100.385 Y69.15
G1 F2700 X102.397 Y67.138 E69.06189
G0 F7800 X102.906 Y67.138
G1 F2700 X100.894 Y69.15 E69.18966
G0 F7800 X101.404 Y69.15
G1 F2700 X102.831 Y67.722 E69.2803
G0 F7800 X102.949 Y67.605
