;FLAVOR:Marlin
;Print time:00:26
;Filament used: 0m
;Layer height: 0.3

;Generated with Cura_SteamEngine 3.6.0
M82 ;absolute extrusion mode
;Basic settings:; Layer height: 0.3 ; Walls: 3 ; Fill: 5 ; Speed: 60.0 ; Temperature: 230 ; Filament Diameter: 1.75 ; Support Structures: everywhere ; Support Angle: 65
;Print time: 00:26
;Print weight: 7.0g
M104 S235
T0
G28
G90
M106 S0
G92 E0
G1 Z0.5 F2000
M109 S235
G1 Z0.2 E0 F2000
G1 X65 E7 F1500
G1 X12 Y2 E14 F1500

G92 E0
G1 F3600 E-0.8
;LAYER_COUNT:31
;LAYER:0
M107
G1 F1200.000000 X73.83 Y53.80 E3.16
G0 F3600 X83.826 Y63.8 Z0.3
G92 E0

;TYPE:SKIRT
G1 F3600 E0
G1 F1800 X92.153 Y63.635 E0.37397
G1 X94.878 Y63.583 E0.49634
G1 X94.878 Y66.676 E0.63522
G1 X83.826 Y66.688 E1.13147
G1 X83.826 Y63.8 E1.26115
G0 F3600 X83.466 Y63.596
G1 F1800 X83.413 Y63.469 E1.26732
G1 X83.393 Y63.449 E1.26859
G1 X95.288 Y63.215 E1.8028
G1 X95.238 Y63.335 E1.80863
G1 X95.238 Y67.036 E1.97481
G1 X83.466 Y67.048 E2.50339
G1 X83.466 Y63.596 E2.65839
G1 F3600 E1.85839
G0 F3600 X83.198 Y60.093
G1 F3600 E2.65839
G1 F1800 X94.942 Y59.861 E3.18581
G1 X95.124 Y59.862 E3.19398
G1 X100.127 Y60.05 E3.41878
G1 X105.648 Y60.028 E3.66669
G1 X109.372 Y59.856 E3.83408
G1 X120.572 Y60.141 E4.33714
G1 X139.73 Y60.109 E5.19737
G1 X145.104 Y60.616 E5.43974
G1 X145.6 Y60.703 E5.46235
G1 X146.077 Y60.867 E5.485
G1 X146.521 Y61.105 E5.50762
G1 X146.922 Y61.41 E5.53024
G1 X147.271 Y61.774 E5.55289
G1 X147.557 Y62.189 E5.57552
G1 X147.774 Y62.643 E5.59811
G1 X147.917 Y63.127 E5.62077
G1 X147.985 Y63.782 E5.65034
G1 X147.985 Y96.248 E7.1081
G1 X147.945 Y96.75 E7.13071
G1 X147.826 Y97.24 E7.15335
G1 X147.632 Y97.705 E7.17598
G1 X147.366 Y98.133 E7.1986
G1 X147.036 Y98.514 E7.22124
G1 X146.65 Y98.838 E7.24386
G1 X146.217 Y99.097 E7.26652
G1 X145.75 Y99.284 E7.28911
G1 X145.143 Y99.41 E7.31694
G1 X140.255 Y99.913 E7.5376
G1 X121.08 Y99.856 E8.39858
G1 X109.179 Y100.143 E8.93311
G1 X104.08 Y99.933 E9.16226
G1 X98.559 Y100.001 E9.41018
G1 X95.682 Y100.142 E9.53952
G1 X83.361 Y99.888 E10.09287
G1 X76.737 Y99.358 E10.39125
G1 X76.24 Y99.278 E10.41385
G1 X75.761 Y99.12 E10.4365
G1 X75.313 Y98.889 E10.45913
G1 X74.907 Y98.59 E10.48177
G1 X74.554 Y98.231 E10.50438
G1 X74.262 Y97.82 E10.52702
G1 X74.089 Y97.488 E10.54383
G1 X71.479 Y91.663 E10.83043
G1 X68.941 Y86.809 E11.07637
G1 X67.444 Y84.225 E11.21046
G1 X67.227 Y83.77 E11.2331
G1 X67.084 Y83.287 E11.25572
G1 X67.016 Y82.631 E11.28533
G1 X67.016 Y77.369 E11.5216
G1 X67.056 Y76.867 E11.54421
G1 X67.175 Y76.377 E11.56685
G1 X67.41 Y75.836 E11.59334
G1 X70.853 Y69.579 E11.91401
G1 X73.202 Y64.586 E12.16177
G1 X74.056 Y62.571 E12.26004
G1 X74.289 Y62.124 E12.28267
G1 X74.59 Y61.719 E12.30533
G1 X74.95 Y61.367 E12.32794
G1 X75.362 Y61.077 E12.35056
G1 X75.815 Y60.855 E12.37321
G1 X76.296 Y60.707 E12.39581
G1 X76.711 Y60.644 E12.41465
G1 X83.198 Y60.093 E12.70698
G0 F3600 X83.191 Y59.733
G1 F1800 X94.935 Y59.501 E13.2344
G1 X95.138 Y59.502 E13.24352
G1 X100.14 Y59.69 E13.46827
G1 X105.629 Y59.668 E13.71474
G1 X109.381 Y59.496 E13.88339
G1 X120.58 Y59.781 E14.3864
G1 X139.763 Y59.751 E15.24776
G1 X145.137 Y60.258 E15.49013
G1 X145.662 Y60.347 E15.51404
G1 X146.167 Y60.514 E15.53792
G1 X146.641 Y60.755 E15.5618
G1 X147.073 Y61.064 E15.58565
G1 X147.455 Y61.435 E15.60956
G1 X147.777 Y61.858 E15.63343
G1 X148.031 Y62.325 E15.6573
G1 X148.213 Y62.825 E15.68119
G1 X148.318 Y63.346 E15.70506
G1 X148.345 Y63.782 E15.72467
G1 X148.345 Y96.248 E17.18243
G1 X148.305 Y96.778 E17.2063
G1 X148.186 Y97.297 E17.23021
G1 X147.991 Y97.791 E17.25405
G1 X147.724 Y98.251 E17.27793
G1 X147.391 Y98.666 E17.30182
G1 X146.999 Y99.026 E17.32572
G1 X146.559 Y99.323 E17.34956
G1 X146.078 Y99.551 E17.37346
G1 X145.569 Y99.705 E17.39734
G1 X140.64 Y100.253 E17.62004
G1 X140.253 Y100.273 E17.63744
G1 X121.087 Y100.216 E18.49802
G1 X109.164 Y100.503 E19.03354
G1 X104.07 Y100.293 E19.26246
G1 X98.585 Y100.361 E19.50876
G1 X95.675 Y100.502 E19.63959
G1 X83.333 Y100.247 E20.19388
G1 X76.709 Y99.717 E20.49226
G1 X76.183 Y99.635 E20.51616
G1 X75.676 Y99.475 E20.54003
G1 X75.199 Y99.241 E20.56389
G1 X74.761 Y98.938 E20.5878
G1 X74.375 Y98.573 E20.61166
G1 X74.047 Y98.154 E20.63555
G1 X73.761 Y97.636 E20.66212
G1 X71.156 Y91.824 E20.9481
G1 X68.618 Y86.968 E21.19412
G1 X67.133 Y84.405 E21.32712
G1 X66.901 Y83.926 E21.35102
G1 X66.745 Y83.418 E21.37488
G1 X66.656 Y82.631 E21.41045
G1 X66.656 Y77.369 E21.64672
G1 X66.696 Y76.839 E21.67058
G1 X66.815 Y76.32 E21.69449
G1 X67.095 Y75.662 E21.7266
G1 X70.537 Y69.406 E22.04721
G1 X72.868 Y64.453 E22.293
G1 X73.725 Y62.43 E22.39165
G1 X73.968 Y61.958 E22.41549
G1 X74.28 Y61.527 E22.43938
G1 X74.653 Y61.148 E22.46326
G1 X75.078 Y60.829 E22.48712
G1 X75.547 Y60.577 E22.51102
G1 X76.048 Y60.398 E22.53491
G1 X76.681 Y60.285 E22.56378
G1 X83.191 Y59.733 E22.85715
G1 F3600 E22.05715
G0 F3600 X109.671 Y63.215
G1 F3600 E22.85715
G1 F1800 X110.237 Y63.23 E22.88257
G1 X111.218 Y63.257 E22.92663
G1 X119.378 Y63.484 E23.29317
G1 X119.303 Y63.633 E23.30074
G1 X119.303 Y67.139 E23.45817
G1 X119.131 Y67.082 E23.46634
G1 X109.721 Y67.032 E23.88886
G1 X109.721 Y63.335 E24.05486
G1 X109.671 Y63.215 E24.0607
G0 F3600 X110.081 Y63.586
G1 F1800 X110.228 Y63.59 E24.0673
G1 X111.209 Y63.617 E24.11137
G1 X118.943 Y63.832 E24.45877
G1 X118.943 Y66.721 E24.58849
G1 X110.081 Y66.673 E24.98641
G1 X110.081 Y63.586 E25.12502
G1 F3600 E24.32502
G0 F3600 X126.763 Y63.495
G1 F3600 E25.12502
G1 F1800 X127.557 Y63.494 E25.16067
G1 X129.617 Y63.488 E25.25317
G1 X139.702 Y63.461 E25.70676
G1 X139.649 Y63.588 E25.71294
G1 X139.649 Y67.139 E25.87238
G1 X136.45 Y67.084 E26.01604
G1 X136.222 Y67.113 E26.02636
G1 X132.21 Y67.057 E26.20653
G1 X131.878 Y67.101 E26.22157
G1 X127.922 Y67.046 E26.39921
G1 X127.595 Y67.088 E26.41402
G1 X126.827 Y67.08 E26.4485
G1 X126.827 Y63.633 E26.60328
G1 X126.763 Y63.495 E26.61015
G0 F3600 X127.187 Y63.854
G1 F1800 X127.559 Y63.854 E26.62686
G1 X129.619 Y63.848 E26.71935
G1 X139.289 Y63.816 E27.15355
G1 X139.289 Y66.773 E27.28632
G1 X136.405 Y66.727 E27.41584
G1 X136.203 Y66.752 E27.42498
G1 X132.163 Y66.7 E27.60641
G1 X131.857 Y66.74 E27.62027
G1 X127.876 Y66.689 E27.79904
G1 X127.575 Y66.728 E27.81267
G1 X127.187 Y66.724 E27.83009
G1 X127.187 Y63.854 E27.95896
G1 F3600 E27.15896
G0 F3600 X126.827 Y92.544
G1 F3600 E27.95896
G1 F1800 X127.616 Y92.552 E27.99439
G1 X127.958 Y92.583 E28.0098
G1 X131.885 Y92.632 E28.18615
G1 X132.241 Y92.664 E28.2022
G1 X136.137 Y92.712 E28.37714
G1 X136.207 Y92.741 E28.38055
G1 X139.649 Y92.783 E28.53511
G1 X139.649 Y96.442 E28.6994
G1 X139.707 Y96.574 E28.7059
G1 X126.774 Y96.511 E29.28769
G1 X126.827 Y96.384 E29.29387
G1 X126.827 Y92.544 E29.46629
G0 F3600 X127.187 Y92.908
G1 F1800 X127.591 Y92.912 E29.48443
G1 X127.925 Y92.942 E29.49949
G1 X131.86 Y92.992 E29.67619
G1 X132.236 Y93.024 E29.69314
G1 X136.059 Y93.071 E29.86481
G1 X136.202 Y93.101 E29.87137
G1 X139.289 Y93.139 E30.00999
G1 X139.289 Y96.213 E30.14802
G1 X127.187 Y96.163 E30.69141
G1 X127.187 Y92.908 E30.83757
G1 F3600 E30.03757
G0 F3600 X110.081 Y93.074
G1 F3600 E30.83757
G1 F1800 X111.391 Y93.049 E30.8964
G1 X112.134 Y93.035 E30.92977
G1 X118.943 Y92.903 E31.23556
G1 X118.943 Y96.182 E31.38279
G1 X110.081 Y96.415 E31.78084
G1 X110.081 Y93.074 E31.93085
G0 F3600 X109.721 Y92.721
G1 F1800 X111.384 Y92.689 E32.00554
G1 X112.127 Y92.675 E32.03891
G1 X119.226 Y92.525 E32.35778
G1 X119.303 Y92.493 E32.36153
G1 X119.303 Y96.384 E32.53624
G1 X119.375 Y96.53 E32.54362
G1 X109.67 Y96.786 E32.97954
G1 X109.721 Y96.665 E32.98544
G1 X109.721 Y92.721 E33.16253
G1 F3600 E32.36253
G0 F3600 X83.826 Y92.896
G1 F3600 E33.16253
G1 F1800 X90.1 Y93 E33.44428
G1 X94.878 Y93.075 E33.65884
G1 X94.878 Y96.416 E33.80886
G1 X83.826 Y96.182 E34.30521
G1 X83.826 Y92.896 E34.45276
G0 F3600 X83.466 Y92.53
G1 F1800 X90.106 Y92.64 E34.75094
G1 X95.238 Y92.72 E34.98141
G1 X95.238 Y96.665 E35.15854
G1 X95.288 Y96.785 E35.16438
G1 X83.391 Y96.533 E35.69869
G1 X83.466 Y96.384 E35.70626
G1 X83.466 Y92.53 E35.87931
G1 F3600 E35.07931
G0 F3600 X84.006 Y93.1
;TYPE:SUPPORT
G1 F3600 E35.87931
G1 F1800 X85.273 Y93.1 E35.93462
G0 F3600 X85.12 Y93.098
G1 F1800 X85.12 Y96.029 E36.06257
G1 F3600 E35.26257
G0 F3600 X84.006 Y95.76
G1 F3600 E36.06257
G1 F1800 X94.698 Y95.76 E36.52932
G1 F3600 E35.72932
G0 F3600 X93.1 Y96.198
G1 F3600 E36.52932
G1 F1800 X93.1 Y93.227 E36.65901
G1 F3600 E35.85901
G0 F3600 X90.44 Y93.186
G1 F3600 E36.65901
G1 F1800 X90.44 Y96.142 E36.78806
G1 F3600 E35.98806
G0 F3600 X87.78 Y96.086
G1 F3600 E36.78806
G1 F1800 X87.78 Y93.142 E36.91657
G1 F3600 E36.11657
G0 F3600 X110.261 Y95.76
G1 F3600 E36.91657
G1 F1800 X118.763 Y95.76 E37.28772
G1 F3600 E36.48772
G0 F3600 X117.04 Y96.053
G1 F3600 E37.28772
G1 F1800 X117.04 Y93.12 E37.41576
G1 F3600 E36.61576
G0 F3600 X118.102 Y93.1
G1 F3600 E37.41576
G1 F1800 X118.763 Y93.1 E37.44461
G1 F3600 E36.64461
G0 F3600 X114.38 Y93.171
G1 F3600 E37.44461
G1 F1800 X114.38 Y96.122 E37.57343
G1 F3600 E36.77343
G0 F3600 X111.72 Y96.192
G1 F3600 E37.57343
G1 F1800 X111.72 Y93.222 E37.70309
G1 F3600 E36.90309
G0 F3600 X127.367 Y93.1
G1 F3600 E37.70309
G1 F1800 X127.684 Y93.1 E37.71692
G0 F3600 X127.68 Y93.101
G1 F1800 X127.68 Y95.985 E37.84282
G0 F3600 X127.367 Y95.76
G1 F1800 X139.109 Y95.76 E38.35541
G1 F3600 E37.55541
G0 F3600 X138.32 Y96.028
G1 F3600 E38.35541
G1 F1800 X138.32 Y93.308 E38.47415
G1 F3600 E37.67415
G0 F3600 X135.66 Y93.246
G1 F3600 E38.47415
G1 F1800 X135.66 Y96.018 E38.59515
G1 F3600 E37.79515
G0 F3600 X133 Y96.007
G1 F3600 E38.59515
G1 F1800 X133 Y93.214 E38.71708
G1 F3600 E37.91708
G0 F3600 X130.34 Y93.154
G1 F3600 E38.71708
G1 F1800 X130.34 Y95.996 E38.84114
G1 F3600 E38.04114
G0 F3600 X130.34 Y66.538
G1 F3600 E38.84114
G1 F1800 X130.34 Y64.025 E38.95085
G1 F3600 E38.15085
G0 F3600 X127.68 Y64.033
G1 F3600 E38.95085
G1 F1800 X127.68 Y66.534 E39.06002
G0 F3600 X127.367 Y66.5
G1 F1800 X139.109 Y66.5 E39.57261
G1 F3600 E38.77261
G0 F3600 X138.32 Y66.575
G1 F3600 E39.57261
G1 F1800 X138.32 Y63.998 E39.68511
G1 F3600 E38.88511
G0 F3600 X135.66 Y64.007
G1 F3600 E39.68511
G1 F1800 X135.66 Y66.564 E39.79673
G1 F3600 E38.99673
G0 F3600 X133 Y66.525
G1 F3600 E39.79673
G1 F1800 X133 Y64.016 E39.90626
G1 F3600 E39.10626
G0 F3600 X118.763 Y66.5
G1 F3600 E39.90626
G1 F1800 X111.415 Y66.5 E40.22703
G0 F3600 X111.72 Y66.501
G1 F1800 X111.72 Y63.812 E40.34441
G1 F3600 E39.54441
G0 F3600 X112.803 Y63.84
G1 F3600 E40.34441
G1 F1800 X110.261 Y63.84 E40.45538
G1 F3600 E39.65538
G0 F3600 X114.38 Y63.886
G1 F3600 E40.45538
G1 F1800 X114.38 Y66.515 E40.57014
G1 F3600 E39.77014
G0 F3600 X117.04 Y66.529
G1 F3600 E40.57014
G1 F1800 X117.04 Y63.959 E40.68234
G1 F3600 E39.88234
G0 F3600 X94.698 Y63.84
G1 F3600 E40.68234
G1 F1800 X90.848 Y63.84 E40.8504
G0 F3600 X90.44 Y63.849
G1 F1800 X90.44 Y66.5 E40.96613
G0 F3600 X90.102 Y66.5
G1 F1800 X84.006 Y66.5 E41.23224
G1 F3600 E40.43224
G0 F3600 X85.12 Y66.506
G1 F3600 E41.23224
G1 F1800 X85.12 Y63.954 E41.34365
G1 F3600 E40.54365
G0 F3600 X87.78 Y63.901
G1 F3600 E41.34365
G1 F1800 X87.78 Y66.503 E41.45724
G1 F3600 E40.65724
G0 F3600 X93.1 Y66.499
G1 F3600 E41.45724
G1 F1800 X93.1 Y63.796 E41.57523
G1 F3600 E40.77523
;MESH:C:\Program Files (x86)\Tinkerine Suite 3\TinkerineSuite\util\CuraEngine\temp_stls\temp_saved_scene.stl
G0 F3600 X77.887 Y81.338
;TYPE:WALL-INNER
G1 F3600 E41.57523
G1 F1800 X77.69 Y81.357 E41.58412
G1 X73.828 Y81.734 E41.75835
G1 X71.086 Y81.734 E41.88147
G1 X71.086 Y78.26 E42.03746
G1 X73.969 Y78.26 E42.16691
G1 X79.306 Y77.74 E42.40769
G1 X79.197 Y75.455 E42.5104
G1 X79.015 Y75.455 E42.51858
G1 X79.056 Y75.379
G1 X79.2 Y75.116 E42.53073
G1 X79.443 Y74.321 E42.56806
G1 X79.509 Y72.717 E42.64014
G1 X79.432 Y71.96 E42.6743
G1 X79.2 Y71.202 E42.7099
G1 X78.819 Y70.503 E42.74564
G1 X78.31 Y69.889 E42.78145
G1 X77.887 Y69.549 E42.80582
G1 X77.887 Y64.681 E43.0244
G1 X81.686 Y64.681 E43.19498
G1 X81.686 Y69.242 E43.39978
G1 X81.771 Y69.242 E43.40359
G1 X81.771 Y69.606 E43.41994
G1 X81.338 Y69.954 E43.44488
G1 X80.829 Y70.568 E43.48069
G1 X80.448 Y71.267 E43.51644
G1 X80.216 Y72.025 E43.55203
G1 X80.139 Y72.782 E43.58619
G1 X80.205 Y74.386 E43.65828
G1 X80.448 Y75.181 E43.6956
G1 X80.83 Y75.881 E43.73141
G1 X81.301 Y76.447 E43.76447
G1 X81.243 Y77.746 E43.82286
G1 X86.881 Y78.26 E44.07706
G1 X97.018 Y78.26 E44.53222
G1 X97.018 Y64.42 E45.15366
G1 X107.941 Y64.42 E45.64411
G1 X107.941 Y78.26 E46.26554
G1 X113.595 Y78.26 E46.51941
G1 X118.149 Y78.16 E46.72394
G1 X121.083 Y78.16 E46.85568
G1 X121.083 Y76.965 E46.90934
G1 X121.507 Y76.623 E46.9338
G1 X122.016 Y76.011 E46.96954
G1 X122.396 Y75.311 E47.00531
G1 X122.632 Y74.551 E47.04104
G1 X122.707 Y73.793 E47.07524
G1 X122.642 Y72.299 E47.14239
G1 X122.396 Y71.506 E47.17967
G1 X122.016 Y70.807 E47.21539
G1 X121.507 Y70.195 E47.25113
G1 X121.083 Y69.853 E47.27559
G1 X121.083 Y64.718 E47.50616
G1 X125.047 Y64.718 E47.68415
G1 X125.047 Y70.048 E47.92347
G1 X124.784 Y70.26 E47.93864
G1 X124.275 Y70.872 E47.97438
G1 X123.895 Y71.571 E48.0101
G1 X123.649 Y72.364 E48.04738
G1 X123.584 Y73.858 E48.11453
G1 X123.659 Y74.616 E48.14873
G1 X123.895 Y75.376 E48.18446
G1 X124.275 Y76.076 E48.22023
G1 X124.784 Y76.688 E48.25597
G1 X125.047 Y76.9 E48.27114
G1 X125.047 Y78.16 E48.32771
G1 X126.843 Y78.16 E48.40835
G1 X131.333 Y78.26 E48.61001
G1 X141.429 Y78.26 E49.06333
G1 X141.429 Y64.673 E49.67341
G1 X143.914 Y64.673 E49.78498
G1 X143.914 Y95.357 E51.16273
G1 X141.429 Y95.357 E51.27431
G1 X141.429 Y81.734 E51.886
G1 X131.373 Y81.734 E52.33753
G1 X126.883 Y81.635 E52.53918
G1 X125.047 Y81.635 E52.62162
G1 X125.047 Y82.809 E52.67433
G1 X124.53 Y83.226 E52.70416
G1 X124.022 Y83.838 E52.73987
G1 X123.64 Y84.538 E52.77568
G1 X123.397 Y85.336 E52.81313
G1 X123.331 Y87.158 E52.895
G1 X123.408 Y87.91 E52.92894
G1 X123.64 Y88.669 E52.96458
G1 X124.022 Y89.369 E53.00038
G1 X124.531 Y89.981 E53.03612
G1 X125.047 Y90.397 E53.06588
G1 X125.047 Y95.299 E53.28599
G1 X121.083 Y95.299 E53.46398
G1 X121.083 Y90.285 E53.68911
G1 X121.46 Y89.981 E53.71086
G1 X121.969 Y89.369 E53.7466
G1 X122.349 Y88.67 E53.78232
G1 X122.585 Y87.91 E53.81806
G1 X122.66 Y87.158 E53.85199
G1 X122.595 Y85.336 E53.93385
G1 X122.351 Y84.538 E53.97132
G1 X121.969 Y83.838 E54.00713
G1 X121.461 Y83.226 E54.04284
G1 X121.083 Y82.921 E54.06465
G1 X121.083 Y81.635 E54.12239
G1 X118.01 Y81.635 E54.26037
G1 X113.555 Y81.734 E54.46046
G1 X107.941 Y81.734 E54.71253
G1 X107.941 Y95.58 E55.33423
G1 X97.018 Y95.58 E55.82469
G1 X97.018 Y81.734 E56.44639
G1 X87 Y81.734 E56.89621
G1 X81.771 Y81.259 E57.13197
G1 X81.771 Y82.525 E57.18557
G1 X81.338 Y82.873 E57.21051
G1 X80.83 Y83.486 E57.24626
G1 X80.448 Y84.185 E57.28202
G1 X80.205 Y84.984 E57.31952
G1 X80.139 Y86.852 E57.40345
G1 X80.216 Y87.605 E57.43744
G1 X80.448 Y88.363 E57.47303
G1 X80.83 Y89.063 E57.50884
G1 X81.338 Y89.675 E57.54455
G1 X81.771 Y90.025 E57.56955
G1 X81.771 Y90.433 E57.58787
G1 X81.686 Y90.433 E57.59169
G1 X81.686 Y95.299 E57.81018
G1 X77.887 Y95.299 E57.98076
G1 X77.887 Y90.016 E58.21797
G1 X78.31 Y89.675 E58.24236
G1 X78.818 Y89.063 E58.27808
G1 X79.2 Y88.363 E58.31388
G1 X79.432 Y87.605 E58.34948
G1 X79.509 Y86.852 E58.38346
G1 X79.443 Y84.984 E58.46739
G1 X79.2 Y84.185 E58.50489
G1 X78.818 Y83.486 E58.54066
G1 X78.31 Y82.873 E58.57641
G1 X77.887 Y82.533 E58.60077
G1 X77.887 Y81.338 E58.65115
G0 F3600 X77.527 Y81.735
G1 F1800 X77.33 Y81.754 E58.66004
G1 X73.843 Y82.094 E58.81735
G1 X70.726 Y82.094 E58.95731
G1 X70.726 Y77.9 E59.14562
G1 X74.08 Y77.88 E59.29629
G1 X78.93 Y77.414 E59.51506
G1 X78.854 Y75.815 E59.58694
G1 X78.351 Y75.815 E59.60953
G1 X78.582 Y75.498 E59.61975
G1 X78.866 Y74.976 E59.64643
G1 X79.085 Y74.26 E59.68005
G1 X79.148 Y72.728 E59.7489
G1 X79.077 Y72.032 E59.78031
G1 X78.866 Y71.342 E59.81271
G1 X78.52 Y70.706 E59.84522
G1 X78.056 Y70.147 E59.87784
G1 X77.527 Y69.721 E59.90833
G1 X77.527 Y64.321 E60.1508
G1 X82.046 Y64.321 E60.35371
G1 X82.046 Y68.882 E60.5585
G1 X82.131 Y68.882 E60.56232
G1 X82.131 Y69.778 E60.60255
G1 X81.592 Y70.212 E60.63362
G1 X81.128 Y70.771 E60.66624
G1 X80.782 Y71.407 E60.69875
G1 X80.571 Y72.097 E60.73115
